!!!!SEGMENT: pl-kk--kk-i-6--045_anonim--gaude-maria-virgo.krn
!!!cenid: 16xx:1038
!!!COM: Anonim
!!!COM-rismid: pe30004985
!!!CDT:
!!!CNT:
!!!OTL: Gaude Maria virgo
!!!PDT:
!!!AGN: Sacred
!!!SMS-siglum: PL-Kk
!!!SMS-shelfmark: Kk.I.6
!!!SMS-shelfwork: 045 W
!!!SMS-variant:
!!!SMS-altvar:
!!!NIFC-rismid: 1001136532
!!!URL-scan: http://repozytorium.nifc.pl/skany/pl-kk-nut--i-6
!!!ONB-nifc: UWAGA: C (skan 0067, s. 130-131), T (skan 0179, s. 162-163), B (skan 0287-0288, s. 157-158) Następny utwór: Alleluia Ave Maria
!!!key:
**kern	**text	**kern	**text	**kern	**text
*part3	*part3	*part2	*part2	*part1	*part1
*staff3	*staff3	*staff2	*staff2	*staff1	*staff1
*Iempty	*	*Itenor	*	*Ivox	*
*I"Baſsus.	*	*I"Tenor.	*	*I"Cantus.	*
*I'B	*	*I'T	*	*I'S	*
*clefF4	*	*clefC4	*	*clefC1	*
*k[b-]	*	*k[b-]	*	*k[b-]	*
*g:	*	*g:	*	*g:	*
*M3/2	*	*M3/2	*	*M3/2	*
=1-	=1-	=1-	=1-	=1-	=1-
!LO:TX:t=P:problem=4\/middle&colon; global	!	!LO:TX:t=P:problem=4\/middle&colon; global	!	!	!
!	!	!	!	!LO:TX:t=P:problem=4\/middle&colon; global	!
!LO:TX:a:t=Tractus post Septuagesimam.	!	!LO:TX:a:t=Tractus post Septuagesimam.	!	!	!
!LO:TX:t=P:global:problem=brak kresek taktowych	!	!LO:TX:t=P:global:problem=brak kresek taktowych	!	!LO:TX:a:t=Tractus post Septuagesimam.	!
1G\	Gau-	1B-\	Gau-	2r	.
*	*	*	*	*2\right	*
.	.	.	.	2dd\	Gau-
*2\right	*	*2\right	*	*	*
!LO:TX:t=P:problem=kreska pseudotaktowa	!	!	!	!LO:TX:t=P:problem=kreska pseudotaktowa	!
2F#X\	-de	2A\	-de	2dd\	-de
=2	=2	=2-	=2-	=2	=2
*	*	*	*ij	*	*
!LO:TX:t=P:problem=kreska pseudotaktowa	!	!	!	!	!
1.G\	gau-	1.B-\	Gau-	4b-\	gau-
.	.	.	.	4a\	.
.	.	.	.	4b-\	.
.	.	.	.	4g\	.
.	.	.	.	4b-\	.
!	!	!	!	!LO:TX:t=P:problem=kreska pseudotaktowa	!
.	.	.	.	4cc\	.
=3	=3	=3-	=3-	=3	=3
!LO:TX:t=P:problem=kreska pseudotaktowa	!	!	!	!	!
1.D\	-de	2A/	-de	1.dd\	.
*	*	*	*Xij	*	*
.	.	2d\	gau-	.	.
.	.	2d\	-de	.	.
=4	=4	=4-	=4-	=4-	=4-
2r	.	4B-\	gau-	2dd\	-de
.	.	4A\	.	.	.
2G\	gau-	4B-\	.	2b-\	gau-
.	.	4G\	.	.	.
!LO:TX:t=P:problem=kreska pseudotaktowa	!	!	!	!	!
2G\	-de	4B-\	.	2b-\	-de
.	.	4c\	.	.	.
=5	=5	=5-	=5-	=5-	=5-
4F#X\	gau-	1d\	.	4a\	gau-
4E\	.	.	.	4g\	.
4F#\	.	.	.	4a\	.
4D\	.	.	.	4f#X\	.
4E\	.	2d\	-de	4g\	.
!LO:TX:t=P:problem=kreska pseudotaktowa	!	!	!	!	!
4F#\	.	.	.	4a\	.
=6	=6	=6-	=6-	=6-	=6-
2G\	.	2r	.	1b-\	.
2G\	-de	2G/	gau-	.	.
!LO:TX:t=P:problem=kreska pseudotaktowa	!	!	!	!LO:TX:t=P:problem=kreska pseudotaktowa	!
2G\	Ma-	2G/	-de	2b-\	-de
=7	=7	=7-	=7-	=7	=7
1D\	-ri-	4F#X/	gau-	2r	.
.	.	4E/	.	.	.
*	*	*	*	*	*ij
.	.	4F#/	.	2dd\	gau-
.	.	4D/	.	.	.
!LO:TX:t=P:problem=kreska pseudotaktowa	!	!	!	!	!
2D/	-a	4E/	.	2dd\	-de
*	*	*	*	*	*Xij
.	.	4F#/	.	.	.
=8	=8	=8-	=8-	=8-	=8-
!	!	!LO:LB:g=original	!	!LO:LB:g=original	!
1.E-X\	Vir-	2G/	.	4b-\	gau-
.	.	.	.	4a\	.
.	.	2G/	-de	4b-\	.
.	.	.	.	4g\	.
.	.	2G/	Ma-	4b-\	.
!	!	!	!	!LO:TX:t=P:problem=kreska pseudotaktowa	!
.	.	.	.	4cc\	.
=9-	=9-	=9-	=9-	=9	=9
2D,</	-go	1A\	-ri-	2dd\	.
2D/	gau-	.	.	2dd\	-de
!	!	!	!	!LO:TX:t=P:problem=kreska pseudotaktowa	!
2D/	-de	2A/	-a	2a\	Ma-
=10-	=10-	=10-	=10-	=10	=10
!LO:LB:g=original	!	!	!	!	!
4BB-/	gau-	1G/	Vir-	1b-\	-ri-
4AA/	.	.	.	.	.
4BB-/	.	.	.	.	.
4GG/	.	.	.	.	.
4BB-/	.	2G/	-go	2b-\	-a
!LO:TX:t=P:problem=kreska pseudotaktowa	!	!	!	!	!
4C/	.	.	.	.	.
=11	=11	=11-	=11-	=11-	=11-
2D/	.	2d\	gau-	2.a\	Vir-
2D/	-de	2d\	-de	.	.
.	.	.	.	4g\	.
!LO:TX:t=P:problem=kreska pseudotaktowa	!	!	!	!	!
2D/	Ma-	2d\	Ma-	4a\	.
.	.	.	.	4b-\	.
=12	=12	=12-	=12-	=12-	=12-
1C/	-ri-	1e-X\	-ri-	2cc\	.
.	.	.	.	2.g\	.
!LO:TX:t=P:problem=kreska pseudotaktowa	!	!	!	!	!
2E-X\	-a	2c\	-a	.	.
.	.	.	.	4a\	.
=13	=13	=13-	=13-	=13-	=13-
1.D\	Vir-	1.d\	Vir-	2b-\	.
!	!	!	!	!LO:TX:t=P:problem=kreska pseudotaktowa	!
.	.	.	.	1a\	.
=14-	=14-	=14-	=14-	=14	=14
2GG/	-go	1.B-\	-go	1g\	-go
2E-X\	cun-	.	.	.	.
!LO:TX:t=P:problem=kreska pseudotaktowa	!	!	!	!LO:TX:t=P:problem=kreska pseudotaktowa	!
2D\	-ctas	.	.	2r	.
=15	=15	=15-	=15-	=15	=15
2.E-X\	hae-	2r	.	2rb	.
.	.	2B-\	cun-	2b-\	cun-
4D/	.	.	.	.	.
!	!	!	!	!LO:TX:t=P:problem=kreska pseudotaktowa	!
!LO:TX:t=P:problem=kreska pseudotaktowa	!	!	!	!	!
2C/	.	2A\	-ctas	2cc\	-ctas
!	!	!	!	!LO:SIC:v:custos:dd	!
=16	=16	=16-	=16-	=16	=16
!	!	!	!	!LO:LB:g=original	!
2.BB-/	.	2.B-\	hae-	2.dd\	hae-
4BB-/	-re-	4B-\	-re-	4cc\	-re-
!LO:TX:t=P:problem=kreska pseudotaktowa	!	!	!	!	!
2BB-/	-ses	2B-\	-ses	2b-\	-ses
!	!	!LO:SIC:v:custos:d	!	!	!
=17	=17	=17-	=17-	=17-	=17-
1B-\	cun-	1d\	Cun-	1.r	.
!LO:TX:t=P:problem=kreska pseudotaktowa	!	!	!	!	!
2A\	-ctas	2c\	-ctas	.	.
=18	=18	=18-	=18-	=18-	=18-
2.B-\	hae-	2.d\	hae-	2re	.
.	.	.	.	2f/	cun-
4A\	.	4c\	.	.	.
!	!	!	!	!LO:TX:t=P:problem=kreska pseudotaktowa	!
2G\	.	2B-\	.	2g/	-ctas
=19-	=19-	=19-	=19-	=19	=19
!LO:LB:g=original	!	!	!	!	!
2.F\	.	2.A/	.	2.a\	hae-
4F\	-re-	4A/	-re-	4a\	-re-
!LO:TX:t=P:problem=kreska pseudotaktowa	!	!	!	!LO:TX:t=P:problem=kreska pseudotaktowa	!
2F\	-ses	2A/	-ses	2a\	-ses
=20	=20	=20-	=20-	=20	=20
2D\	So-	2d\	So-	2b-\	So-
2D\	-la	2d\	-la	2f/	-la
!LO:TX:t=P:problem=kreska pseudotaktowa	!	!	!	!	!
*	*	*	*	*col	*
2D\	in-	2d\	in-	[2b-\	in-
=21	=21	=21-	=21-	=21-	=21-
1E-X\	-ter-	1G/	-ter-	2b-\]	.
*	*	*	*	*Xcol	*
.	.	.	.	4g\	-ter-
.	.	.	.	4a\	.
*	*	*	*	*col	*
!LO:TX:t=P:problem=kreska pseudotaktowa	!	!	!	!	!
2E-\	-e-	2G/	-e-	[2b-\	-mi-
=22	=22	=22-	=22-	=22-	=22-
1F\	-mi-	1c\	-mi-	2b-\]	.
*	*	*	*	*Xcol	*
.	.	.	.	(2b-\	.
!	!	!	!	!LO:TX:t=P:problem=kreska pseudotaktowa	!
2FF/	.	2c\	-sti.	2a\)	.
=23-	=23-	=23-	=23-	=23	=23
!LO:TX:t=P:problem=kreska pseudotaktowa	!	!	!	!	!
1.BB-/	-sti	2B-\	quae	1b-\,<	-sti,
.	.	2B-\	Gab-	.	.
!	!	!	!	!LO:TX:t=P:problem=kreska pseudotaktowa	!
.	.	2B-\	-ri-	2b-\	in-
=24	=24	=24-	=24-	=24	=24
00.r	.	4A\	-e-	1cc\	-ter-
.	.	4G\	.	.	.
.	.	4A\	.	.	.
.	.	4B-\	.	.	.
.	.	4c\	.	2cc\	-e-
.	.	4A\	.	.	.
!	!	!LO:SIC:v:custos:B	!	!	!
=25-	=25-	=25-	=25-	=25-	=25-
!	!	!LO:LB:g=original	!	!	!
.	.	2B-\	.	1dd\	-mi-
.	.	2Fny/	-lis	.	.
.	.	2B-\	Arch-	2dd\	-sti
=26-	=26-	=26-	=26-	=26-	=26-
.	.	2.A\	-an-	00.r	.
.	.	4A\	-ge-	.	.
.	.	2A\	-li	.	.
=27-	=27-	=27-	=27-	=27-	=27-
.	.	1B-\	di-	.	.
.	.	2B-\	-ctis	.	.
=28-	=28-	=28-	=28-	=28-	=28-
!LO:TX:t=P:problem=kreska pseudotaktowa	!	!	!	!	!
00.r	.	2c\	cre-	.	.
.	.	(<2G/	.	.	.
.	.	1c\)	.	.	.
=29-	=29-	=29-	=29-	=29-	=29-
.	.	.	.	.	.
.	.	1B-\	.	.	.
=30-	=30-	=30-	=30-	=30-	=30-
.	.	1.A\	-di-	1.rdd	.
=31-	=31-	=31-	=31-	=31-	=31-
!	!	!	!	!LO:LB:g=original	!
.	.	1.G/	-di-	2b-\	quae
.	.	.	.	2b-\	Gab-
!	!	!	!	!LO:TX:t=P:problem=kreska pseudotaktowa	!
.	.	.	.	2b-\	-ri-
=32	=32	=32-	=32-	=32	=32
2F\	quae	1.F/	-sti	4a\	-e-
.	.	.	.	4g\	.
2F\	Gab-	.	.	4a\	.
.	.	.	.	4b-\	.
!LO:TX:t=P:problem=kreska pseudotaktowa	!	!	!	!	!
2F\	-ri-	.	.	4cc\	.
!	!	!	!	!LO:TX:t=P:problem=kreska pseudotaktowa	!
.	.	.	.	4a\	.
=33	=33	=33-	=33-	=33	=33
4D\	-e-	0.r	.	2b-\	.
4C\	.	.	.	.	.
4D\	.	.	.	2f/	-lis
!LO:TX:t=P:problem=♭ above	!	!	!	!	!
4E-X\	.	.	.	.	.
!	!	!	!	!LO:TX:t=P:problem=kreska pseudotaktowa	!
4F\	.	.	.	2b-\	Arch-
!LO:TX:t=P:problem=kreska pseudotaktowa	!	!	!	!	!
4D\	.	.	.	.	.
=34	=34	=34-	=34-	=34	=34
2E-X\	.	.	.	2.g/	-an-
2BB-/	-lis	.	.	.	.
.	.	.	.	4f/	.
!LO:TX:t=P:problem=kreska pseudotaktowa	!	!	!	!	!
2E-\	Arch-	.	.	4g/	.
.	.	.	.	4a\	.
=35	=35	=35-	=35-	=35-	=35-
2.D/	-an-	2B-\	quae	2.b-\	.
.	.	2B-\	Gab-	.	.
4D/	-ge-	.	.	4b-\	-ge-
!	!	!	!	!LO:TX:t=P:problem=kreska pseudotaktowa	!
2D/	-li	2B-\	-ri-	2b-\	-li
!	!	!LO:SIC:v:custos:G	!	!	!
=36-	=36-	=36-	=36-	=36	=36
!LO:LB:g=original	!	!LO:LB:g=original	!	!	!
2E-X\	di-	2.G/	-e-	1b-\	di-
2BB-/	-ctis	.	.	.	.
.	.	4A/	-lis	.	.
1E-\	cre-	4B-\	di-	2g/	-ctis
.	.	4B-\	-ctis	.	.
=37-	=37-	=37-	=37-	=37-	=37-
.	.	2c\	cre-	2a\	cre-
1D\	-di-	1d\	-di-	1b-\	-di-
=38-	=38-	=38-	=38-	=38-	=38-
!LO:TX:t=P:problem=kreska pseudotaktowa	!	!	!	!	!
1.C/	-di-	2e-X\	-di-	(1b-\	-di-
.	.	1c\	.	.	.
!	!	!	!	!LO:TX:t=P:problem=kreska pseudotaktowa	!
.	.	.	.	2a\)	.
=39	=39	=39-	=39-	=39	=39
!	!	!	!	!LO:LB:g=original	!
1BB-/	-sti.	1d\	-sti.	1b-\	-sti.
!LO:TX:t=P:problem=kreska pseudotaktowa	!	!	!	!LO:N:acc=#	!
2G\	Dum	2d\	Dum	2bn\	Dum
=40	=40	=40-	=40-	=40-	=40-
2.C/	Vir-	1e-X\	Vir-	1cc\	Vir-
4D/	.	.	.	.	.
4E-X\	.	2e-\	-go	2cc\	-go
!LO:TX:t=P:problem=kreska pseudotaktowa	!	!	!	!	!
4F\	.	.	.	.	.
=41	=41	=41-	=41-	=41-	=41-
*	*	*	*	*	*ij
!	!	!	!	!LO:N:acc=#	!
1G\	.	1d\	Vir-	1bn\	Vir-
!	!	!	!	!LO:TX:t=P:problem=kreska pseudotaktowa	!
2E-X\	-go	2e-X\	-go	2g/	-go
*	*	*	*	*	*Xij
=42-	=42-	=42-	=42-	=42	=42
1.A-X\	De-	1c\	De-	1.cc\	De-
.	.	2f\	.	.	.
=43-	=43-	=43-	=43-	=43-	=43-
!	!	!	!	!LO:N:acc=#	!
1G\	-um	1d\,<	-um	1bn\	-um
!LO:TX:t=P:problem=kreska pseudotaktowa	!	!	!	!	!
2c\	et	2e-X\	et	2cc\	et
=44	=44	=44-	=44-	=44-	=44-
2.F\	ho-	2.e-X\	ho-	2.cc\	ho-
4F\	-mi-	4e-\	-mi-	4cc\	-mi-
!LO:TX:t=P:problem=kreska pseudotaktowa	!	!	!	!LO:TX:t=P:problem=kreska pseudotaktowa	!
2B-X\	-nem	2d\	-nem	2b-X\	-nem
=45	=45	=45-	=45-	=45	=45
!	!	!LO:LB:g=original	!	!	!
*	*	*col	*	*	*
1E-X\	ge-	1c\	ge-	2.cc\	ge-
.	.	.	.	4b-\	.
1F\	-nu-	1c\	-nu-	1a-X\	-nu-
=46-	=46-	=46-	=46-	=46-	=46-
.	.	.	.	.	.
!LO:LB:g=original	!	!	!	!	!
*	*	*Xcol	*	*	*
!LO:TX:t=P:problem=kreska pseudotaktowa	!	!	!	!LO:TX:t=P:problem=kreska pseudotaktowa	!
1G\	-is-	(2c\	-is-	1g\	-is-
!	!	!LO:N:acc=#	!	!	!
.	.	2Bn\)	.	.	.
=47	=47	=47-	=47-	=47	=47
2C/	-ti	2c\	-ti	2g,</	-ti,
2E-X\	et	2B-X\	et	2g/	et
!LO:TX:t=P:problem=kreska pseudotaktowa	!	!	!	!	!
2E-\	post	2B-\	post	2g/	post
=48	=48	=48-	=48-	=48-	=48-
!	!	!	!	!LO:LB:g=original	!
1E-y\	par-	1A-X\	par-	1a-X\	par-
!LO:TX:t=P:problem=kreska pseudotaktowa	!	!	!	!	!
2D/	-tum	2A-/	-tum	2f/	-tum
=49	=49	=49-	=49-	=49-	=49-
!LO:SIC:v:s=1E-	!	!	!	!	!
1E\	Vir-	1G/	Vir-	1g\	Vir-
!LO:SIC:v:s=2E-\	!	!	!	!	!
!LO:TX:t=P:problem=kreska pseudotaktowa	!	!	!	!	!
2E\	-go	2G/	-go	2g,</	-go,
=50	=50	=50-	=50-	=50-	=50-
!LO:TX:t=P:problem=kreska pseudotaktowa	!	!	!	!	!
1.r	.	2E-X/	in-	2g/	in-
.	.	2G/	-vi-	2g/	-vi-
.	.	2E-/	-o-	2g/	-o-
=51	=51	=51-	=51-	=51-	=51-
2BB-/	in-	1B-\	-la-	1f/	-la-
2D/	-vi-	.	.	.	.
!LO:TX:t=P:problem=kreska pseudotaktowa	!	!	!	!LO:TX:t=P:problem=kreska pseudotaktowa	!
2BB-/	-o-	2B-\	-ta	2b-\	-ta
=52	=52	=52-	=52-	=52	=52
2E-X\	-la-	[1.B-\	per-	2b-\	in-
4D\	.	.	.	2dd\	-vi-
4E-\	.	.	.	.	.
4D\	.	.	.	2b-\	-o-
!LO:TX:t=P:problem=kreska pseudotaktowa	!	!	!	!	!
4C/	.	.	.	.	.
=53	=53	=53-	=53-	=53-	=53-
2BB-/	.	1.B-\]	.	2dd\	-la-
4BB-/	.	.	.	4dd\	.
4C/	.	.	.	4ee-X\	.
4BB-/	.	.	.	4dd\	.
!LO:TX:t=P:problem=kreska pseudotaktowa	!	!	!	!LO:TX:t=P:problem=kreska pseudotaktowa	!
4AA/	.	.	.	4cc\	.
=54	=54	=54-	=54-	=54	=54
!	!	!LO:PB:g=original	!	!	!
2GG/	.	[1.B-\	-man-	2b-\	.
4G\	.	.	.	4b-\	.
4A-X\	.	.	.	4cc\	.
4G\	.	.	.	4b-\	.
!	!	!	!	!LO:TX:t=P:problem=kreska pseudotaktowa	!
4F\	.	.	.	4a\	.
!LO:SIC:v:custos:E-	!	!	!	!LO:SIC:v:custos:g	!
=55-	=55-	=55-	=55-	=55	=55
!LO:PB:g=original	!	!	!	!LO:PB:g=original	!
2.E-X\	.	1.B-\]	.	2.g\	.
4E-\	-ta	.	.	4a\	-ta
!	!	!	!	!LO:TX:t=P:problem=kreska pseudotaktowa	!
2D\	per-	.	.	2b-\	per-
=56-	=56-	=56-	=56-	=56	=56
2E-X\	-man-	(1B-\	-si-	2cc\	-man-
!	!	!	!	!LO:TX:t=P:problem=kreska pseudotaktowa	!
(2F\	si-	.	.	1cc\	-si-
2FF/)	.	2Any\)	-sti	.	.
=57-	=57-	=57-	=57-	=57	=57
2BB-/	-sti	2B-\	.	2b-\	-sti
2B-\	et	2B-\	et	2dd\	et
!	!	!	!	!LO:TX:t=P:problem=kreska pseudotaktowa	!
2B-\	post	2B-\	post	2dd\	post
=58-	=58-	=58-	=58-	=58	=58
1B-\	par-	1c\	par-	1cc\	par-
2Any\	-tum	2A/	-tum	2cc\	-tum
=59-	=59-	=59-	=59-	=59-	=59-
1B-\	Vir-	2.d\	Vir-	1b-\	Vir-
.	.	4c\	.	.	.
2B-\	-go	2B-\	-go	2b-\	-go
=60-	=60-	=60-	=60-	=60-	=60-
1.r	.	0.r	.	2b-\	in-
.	.	.	.	2b-\	-vi-
!	!	!	!	!LO:TX:t=P:problem=kreska pseudotaktowa	!
.	.	.	.	2b-\	-o-
=61-	=61-	=61-	=61-	=61	=61
2E-X\	in-	.	.	1.b-\	-la-
2G\	-vi-	.	.	.	.
2E-\	-o-	.	.	.	.
=62-	=62-	=62-	=62-	=62-	=62-
!	!	!LO:N:vis=1	!	!	!
2A-X\	-la-	1.r	.	2cc\	.
4G\	.	.	.	4b-\	.
4A-X\	.	.	.	4cc\	.
4G\	.	.	.	4b-\	.
!	!	!	!	!LO:TX:t=P:problem=kreska pseudotaktowa	!
4F\	.	.	.	4a-X\	.
!LO:SIC:v:custos:E-	!	!	!	!LO:SIC:v:custos:g	!
=63-	=63-	=63-	=63-	=63	=63
!LO:LB:g=original	!	!	!	!LO:LB:g=original	!
2E-X\	.	2B-\	in-	2g/	.
4E-\	.	2d\	-vi-	4g/	.
4F\	.	.	.	4a-X\	.
4E-\	.	2B-\	-o-	4g/	.
4D/	.	.	.	4f/	.
=64-	=64-	=64-	=64-	=64-	=64-
2C/	.	2e-X\	-la-	1e-X/|>	.
4c\	.	4e-\	.	.	.
4d\	.	4f\	.	.	.
4c\	.	4e-\	.	2g/	.
4B-\	.	4d\	.	.	.
=65-	=65-	=65-	=65-	=65-	=65-
2.A-X\	.	2.c\	.	2.a-X\	.
4A-\	-ta	4c\	-ta	4a-\	-ta
!	!	!	!	!LO:TX:t=P:problem=kreska pseudotaktowa	!
2G\	per-	2B-\	per-	2b-\	per-
=66-	=66-	=66-	=66-	=66	=66
!	!	!LO:LB:g=original	!	!	!
2A-X\	-man-	2c\	-man-	4a-X\	-man-
.	.	.	.	4g/	.
!	!	!	!	!LO:TX:t=P:problem=kreska pseudotaktowa	!
(<2B-\	-si-	1B-\	-si-	1f/	-Si-
2BB-/)	.	.	.	.	.
=67-	=67-	=67-	=67-	=67	=67
1E-X\	-sti	1B-\	-sti	2g/	-sti
.	.	.	.	1b-\	per-
2D\	per-	2d\	per-	.	.
=68-	=68-	=68-	=68-	=68-	=68-
2E-X\	-man-	2c\	-man-	2b-\	-man-
2F\	-si-	1c\	-si-	2b-\	-si-
!	!	!	!	!LO:TX:t=P:problem=kreska pseudotaktowa	!
2FF/	.	.	.	2a\	.
=69-	=69-	=69-	=69-	=69	=69
1.BB-/	-sti	1.d\	-sti	1.b-\	-sti
=70-	=70-	=70-	=70-	=70-	=70-
*M2/1	*	*M2/1	*	*M2/1	*
*met(c|)	*	*met(c|)	*	*met(c|)	*
*	*	*lig	*	*	*
!LO:LB:g=original	!	!	!	!	!
!	!	!	!	!LO:TX:t=P:problem=kreska pseudotaktowa	!
2.D/	De-	1F/	De-	1a\	De-
4C/	.	.	.	.	.
2.BB-/	.	1G/	.	2b-\	-i
!	!	!	!	!LO:SIC:v:custos:dd	!
!	!	!	!	!LO:LB:g=original	!
.	.	.	.	[y2dd\	Ge-
4AA/	.	.	.	.	.
*	*	*Xlig	*	*	*
=71-	=71-	=71-	=71-	=71-	=71-
!	!	!	!	!LO:N:xstem:cue	!
2GG/	-i	1G/	-i	4dd\]	.
.	.	.	.	4cc\	.
!	!	!	!	!LO:TX:t=P:problem=kreska pseudotaktowa	!
2.G\	Ge-	.	.	2.b-\	.
*	*	*lig	*	*	*
.	.	1B-\	Ge-	.	.
4F\	.	.	.	4a\	.
4E-X\	.	.	.	1g\	.
4D\	.	.	.	.	.
=72-	=72-	=72-	=72-	=72-	=72-
2C/	.	1A\	.	.	.
!	!	!	!	!LO:TX:t=P:problem=kreska pseudotaktowa	!
2D/	.	.	.	2f#X/	-ni-
*	*	*Xlig	*	*	*
*	*	*lig	*	*	*
2.GG/	.	1B-\	.	1g\	-trix
4AA/	.	.	.	.	.
=73-	=73-	=73-	=73-	=73-	=73-
2.BB-/	.	1G/	.	2r	.
.	.	.	.	2.dd\	Ge-
4C/	.	.	.	.	.
*	*	*Xlig	*	*	*
*	*	*lig	*	*	*
1D\	.	1F/	.	.	.
.	.	.	.	4cc\	.
.	.	.	.	4b-\	.
!	!	!	!	!LO:TX:t=P:problem=kreska pseudotaktowa	!
.	.	.	.	4a\	.
=74-	=74-	=74-	=74-	=74	=74
2.E-X\	.	1G/	.	4g\	.
.	.	.	.	4a\	.
.	.	.	.	2.b-\	.
4F\	.	.	.	.	.
*lig	*	*Xlig	*	*	*
*	*	*lig	*	*	*
1G\	.	1B-\	.	.	.
.	.	.	.	4f/	.
.	.	.	.	1b-\	.
=75-	=75-	=75-	=75-	=75-	=75-
*col	*	*col	*	*	*
2.F\	.	2.c\	.	.	.
*Xcol	*	*	*	*	*
!	!	!	!	!LO:TX:t=P:problem=kreska pseudotaktowa	!
.	.	.	.	2a\	-ni-
*Xlig	*	*Xlig	*	*	*
4F\	-ni-	4c\	-ni-	.	.
*	*	*Xcol	*	*	*
1BB-/	-trix	1B-\	-trix	2b-\	-trix
!LO:SIC:v:custos:B	!	!	!	!	!
.	.	.	.	1ff\	in-
=76-	=76-	=76-	=76-	=76-	=76-
!LO:LB:g=original	!	!LO:LB:g=original	!	!	!
*	*	*lig	*	*	*
2rF	.	1B-\	in-	.	.
!	!	!	!	!LO:TX:t=P:problem=kreska pseudotaktowa	!
1B-\	in-	.	.	2ff\	-ter-
.	.	1c\	.	2ee-X\	-ce-
2Any\	-ter-	.	.	2cc\	.
!	!	!	!	!LO:SIC:v:custos:dd	!
*	*	*Xlig	*	*	*
=77-	=77-	=77-	=77-	=77-	=77-
!	!	!	!	!LO:LB:g=original	!
*	*	*lig	*	*lig	*
1B-\	-ce-	1B-\	-ter-	1dd\	.
!	!	!	!	!LO:TX:t=P:problem=kreska pseudotaktowa	!
2.F\	-de-	1A\	.	1cc\	.
4Eny\	.	.	.	.	.
*	*	*Xlig	*	*Xlig	*
=78-	=78-	=78-	=78-	=78-	=78-
*	*	*lig	*	*	*
2.D/	.	1F/	-ce-	2b-\	-de
.	.	.	.	1dd\	in-
4C/	.	.	.	.	.
4BB-/	.	1G/	.	.	.
4AA/	.	.	.	.	.
!	!	!	!	!LO:TX:a:t=P:problem=kreska pseudotaktowa	!
2GG/	.	.	.	2dd\	-ter-
*	*	*Xlig	*	*	*
=79-	=79-	=79-	=79-	=79	=79
*	*	*lig	*	*	*
2.G\	.	1B-\	.	2b-\	-ce-
.	.	.	.	4g/	-de
!	!	!	!	!LO:TX:t=P:problem=kreska pseudotaktowa	!
4F\	.	.	.	4g/	pro
2.E-X\	.	1G/	.	4g/	no-
.	.	.	.	4a\	.
.	.	.	.	[y2b-\	.
4F\	.	.	.	.	.
*	*	*Xlig	*	*	*
=80-	=80-	=80-	=80-	=80-	=80-
!	!	!	!	!LO:N:xstem:cue	!
4G\	.	1B-\	-de	4b-\]	.
4A\	.	.	.	4cc\	.
!	!	!	!	!LO:TX:t=P::problem=kreska pseudotaktowa&colon;między nutą a kropką	!
2.B-\	.	.	.	2.dd\	.
.	.	1B-\	pro	.	.
4A\	.	.	.	4cc\	.
2G\	.	.	.	1b-\	.
=81-	=81-	=81-	=81-	=81-	=81-
*	*	*lig	*	*	*
1F\	.	1c\	no-	.	.
!	!	!	!	!LO:TX:t=P:problem=kreska pseudotaktowa	!
.	.	.	.	2a\	.
2BB-/	-de	1B-\	.	1b-\	-bis
1B-\	in-	.	.	.	.
*	*	*Xlig	*	*	*
=82-	=82-	=82-	=82-	=82-	=82-
*	*	*lig	*	*	*
.	.	1c\	.	1rdd	.
2A\	-ter-	.	.	.	.
!LO:SIC:v:custos:B	!	!	!	!	!
!LO:LB:g=original	!	!	!	!	!
4B-\	-ce-	1B-\	.	2rb	.
4A\	.	.	.	.	.
4G\	.	.	.	1dd\	in-
4F\	.	.	.	.	.
*	*	*Xlig	*	*	*
=83-	=83-	=83-	=83-	=83-	=83-
*lig	*	*lig	*	*	*
1E-X\	.	1G/	.	.	.
!	!	!	!	!LO:TX:t=P:problem=kreska pseudotaktowa	!
.	.	.	.	2cc\	-ter-
1D\	.	1A\	.	2.dd\	-ce-
.	.	.	.	4cc\	.
*Xlig	*	*Xlig	*	*	*
=84-	=84-	=84-	=84-	=84-	=84-
!	!	!	!	!LO:LB:g=original	!
2GG/	-de	1B-\	.	2.b-\	.
2.BB-/	pro	.	.	.	.
!	!	!	!	!LO:TX:t=P:problem=kreska pseudotaktowa	!
.	.	.	.	4a\	.
*	*	*lig	*	*	*
.	.	1d\	.	4g\	.
4C\	.	.	.	4a\	.
4D\	.	.	.	1b-\	.
!LO:TX:t=P:problem=♭ above	!	!	!	!	!
4E-X\	.	.	.	.	.
=85-	=85-	=85-	=85-	=85-	=85-
1F\	no-	1c\	.	.	.
!	!	!	!	!LO:TX:t=P:problem=kreska pseudotaktowa	!
.	.	.	.	2a\	.
*	*	*Xlig	*	*	*
*	*	*lig	*	*	*
1BB-/	-bis	1d\	.	2b-,<\	-de.
.	.	.	.	2b-\	pro
=86-	=86-	=86-	=86-	=86-	=86-
2rBB	.	1B-\	.	4dd\	no-
.	.	.	.	4cc\	.
1G\	in-	.	.	4b-\	.
!	!	!	!	!LO:TX:t=P:problem=kreska pseudotaktowa	!
.	.	.	.	4g\	.
*	*	*Xlig	*	*	*
*	*	*lig	*	*	*
.	.	1A\	.	2cc\	.
!	!	!	!	!LO:TX:t=P:problem=kreska pseudotaktowa	!
2F#X\	-ter-	.	.	2a\	.
=87-	=87-	=87-	=87-	=87	=87
1G\	-ce-	1G/	.	2.b-\	.
!	!	!	!	!LO:TX:t=P:problem=kreska pseudotaktowa	!
.	.	.	.	4a\	.
*	*	*Xlig	*	*	*
!	!	!LO:LB:g=original	!	!	!
*	*	*lig	*	*	*
2C/	-de	1G/	-bis.	4g/	.
.	.	.	.	4f/	.
2C/	pro	.	.	4g/	.
!	!	!	!	!LO:TX:t=P:problem=kreska pseudotaktowa	!
.	.	.	.	4a\	.
=88-	=88-	=88-	=88-	=88	=88
1.D\	no-	1F/	.	4b-\	.
!	!	!	!	!LO:TX:a:t=P:problem=po 4f/ skreślony fragment	!
.	.	.	.	4f/	.
!	!	!	!	!LO:LB:g=original	!
.	.	.	.	2.b-\	.
*	*	*Xlig	*	*	*
*	*	*lig	*	*	*
.	.	1G/	.	.	.
.	.	.	.	4a\	.
4E-X\	.	.	.	1g\	-bis
4Fny\	.	.	.	.	.
=89-	=89-	=89-	=89-	=89-	=89-
2.G\	.	1B-\	.	.	.
!	!	!	!	!LO:TX:t=P:problem=kreska pseudotaktowa	!
.	.	.	.	2dd\	pro
4A\	.	.	.	.	.
*	*	*Xlig	*	*	*
*	*	*lig	*	*	*
1B-\	.	1c\	.	2ee-X\	no-
!LO:SIC:v:custos:A	!	!	!	!	!
.	.	.	.	2cc\	.
=90-	=90-	=90-	=90-	=90-	=90-
!LO:LB:g=original	!	!	!	!	!
2A\	.	1d\	.	1b-\	-bis
1B-\	.	.	.	.	.
*	*	*Xlig	*	*	*
*	*	*lig	*	*	*
.	.	1c\	.	2r	.
2F\	-bis	.	.	1cc\	in-
=91-	=91-	=91-	=91-	=91-	=91-
2.F\	pro	1A\	.	.	.
!	!	!	!	!LO:TX:a:t=P:problem=kreska pseudotaktowa	!
.	.	.	.	2cc\	-ter-
4G\	.	.	.	.	.
*	*	*Xlig	*	*	*
*	*	*lig	*	*	*
4A\	.	1B-\	.	2b-\	-ce-
4F\	.	.	.	.	.
4G\	no-	.	.	[y2g/	-de
4GG/	.	.	.	.	.
=92-	=92-	=92-	=92-	=92-	=92-
!	!	!	!	!LO:N:xstem:cue	!
4BB-/	.	1A\	.	4g/]	.
4C/	.	.	.	4a\	pro
!	!	!	!	!LO:TX:t=P:problem=kreska pseudotaktowa	!
1D\	.	.	.	2f#X/	no-
*	*	*Xlig	*	*	*
.	.	[1Gl\	.	2g/	-bis
1GG/	-bis	.	.	1dd\	in-
=93-	=93-	=93-	=93-	=93-	=93-
.	.	0G/_	.	.	.
!	!	!	!	!LO:TX:a:t=P:problem=kreska pseudotaktowa	!
2rBB	.	.	.	2dd\	-ter-
1G\	in-	.	.	1b-\	-ce-
=94-	=94-	=94-	=94-	=94-	=94-
2G\	-ter-	0G/_	.	2g/	-de
!LO:N:vis=1	!	!	!	!	!
2E-X\	-ce-	.	.	2.g/	pro-
!LO:N:acc=#	!	!	!	!	!
2BBn/	-de	.	.	.	.
.	.	.	.	4a\	.
!	!	!	!	!LO:LB:g=original	!
!	!	!	!	!LO:N:acc=#	!
2BB/	pro	.	.	4bn\	.
!	!	!	!	!LO:TX:t=P:problem=kreska pseudotaktowa	!
.	.	.	.	4g/	.
=95-	=95-	=95-	=95-	=95	=95
0C/	no-	0G/_	.	4cc\	-no-
.	.	.	.	4g/	-bis
.	.	.	.	1cc\	pro
.	.	.	.	2cc\	no-
=96-	=96-	=96-	=96-	=96-	=96-
!LO:TX:t=P:problem=fermata również u dołu	!	!	!	!LO:TX:t=P:problem=fermata również pod nutą	!
!	!	!	!	!LO:N:acc=#	!
0GG/;>;<	-bis.	0G/]	.	0bn\;>;<	-bis.
=-	=-	=-	=-	=-	=-
*-	*-	*-	*-	*-	*-
!!!system-decoration: [(s1,s2,s3)]
!!!RDF**kern: < = below
!!!RDF**kern: > = above
!!!RDF**kern: | = vertical stroke
!!!RDF**kern: l = terminal long
!!!AIN: 1 empty 1 tenor 1 vox
!!!ENC: Zofia Niedbalska
!!!END: 2021-04-26
!!!ENC: Kamil Watkowski
!!!END: 2021-03-10
